icons/VueJS-Light.svg

<svg xmlns="http://www.w3.org/2000/svg" width="256" height="256" fill="none" viewBox="0 0 256 256"><rect width="256" height="256" fill="#F4F2EE" rx="60"/><path fill="#41B883" d="M182 50h36l-90 155.25L38 50h68.85L128 86l20.7-36z"/><path fill="#41B883" d="m38 50 90 155.25L218 50h-36l-54 93.15L73.55 50z"/><path fill="#35495E" d="M73.55 50 128 143.6 182 50h-33.3L128 86l-21.15-36z"/></svg>

<svg xmlns="http://www.w3.org/2000/svg" width="256" height="256" fill="none" viewBox="0 0 256 256"><rect width="256" height="256" fill="#F4F2EE" rx="60"/><path fill="#41B883" d="M182 50H218L128 205.25L38 50H73.55H106.85L128 86L148.7 50H182Z"/><path fill="#41B883" d="M38 50L128 205.25L218 50H182L128 143.15L73.55 50H38Z"/><path fill="#35495E" d="M73.55 50L128 143.6L182 50H148.7L128 86L106.85 50H73.55Z"/></svg>
